**kern	**kern
*part1	*part1
*staff2	*staff1
*I"Piano	*
*clefF4	*clefG2
*k[b-e-a-]	*k[b-e-a-]
=1	=1
4BB- 4F 4A-	4B- 4d 4a-
8BB-L 8F 8A-	8B-L 8d 8a-
8BB-J 8F 8A-	8B-J 8d 8a-
=	=
4BB- 4F 4A-	4B- 4d 4a-
8BB-L 8F 8A-	8B-L 8d 8a-
8BB-J 8F 8A-	8B-J 8d 8a-
=	=
4BB- 4G	4B- 4d 4b-
8BB-L 8F 8A-	8B-L 8d 8a-
8BB-J 8F 8A-	8B-J 8d 8a-
=	=
4E- 4G	4B- 4e- 4g
8E-L 8G	8B-L 8e- 8g
8E-J 8G	8B-J 8e- 8g
=	=
4E- 4G	4B- 4g
8E-L 8G	8cL 8g
8E-J 8G	8dJ 8g
=	=
4E- 4G	4e- 4g
8E-L 8G	8B-L 8e- 8g
8E-J 8G	8B-J 8e- 8g
=	=
4E- 4G	4B- 4e- 4g
8E-L 8G	8B-L 8e- 8g
8C-XJ 8G-X	8c-XJ 8e- 8g-X
=	=
4C-X 4G-X	4c-X 4e- 4g-X
8C-L 8G-	8c-L 8e- 8g-
8C-J 8G-	8c-J 8e- 8g-
=	=
*-	*-
!!!system-decoration: {(s1,s2)}
